X:1     
T:Lovely Joan  (1) 
B:Briars and Bushes (Vaughan Williams), Ed Roy Palmer, IBSN 1-86143-072-8
S:Mr William Hurr, Southwold, Sussex
Z:Vaughan Williams,British Library MSS 54187/91, I, 354
Q:100  
M:4/4
L:1/8     
K:Ddor
F2 |(FG) AA c3 F |(GF) D D4 z |d2 (de) f2 ed |
w:"Good morn - ing to you, my pret--ty maid" "Twice good_ morn-ing, kind 
(cB) c2 c2 ((3:2:1A(3:2:1B)(3:2:1c |d2 dc d2 (fe) |
w:sir"_ she said. "Are_ you go-ing a-milk-ing_ 
M:3/2     
L:1/8     
(dc) d2 (A4(A)B)(AG) |
w:all_ a-lone?__ "Oh_ 
M:4/4     
L:1/8     
(FG) (AB) c3 F | (GF) D2 D2 z2 |]
w:yes",_ re - plied sweet love - ly Joan